X:1
T:Title
%%score ( 1 2 ) { 3 | 4 }
L:1/8
Q:1/4=97
M:6/8
K:F
V:1 treble nm="Grand Piano, Soprano"
V:2 treble 
V:3 bass nm="Choir Pad, We Will Journey On, Crosby"
V:4 bass 
V:1
 [CF][CF][CF] [CF][CG][FA] | [Fc]2 [Fc] AGF | [EG]2 [EG] [Ec]2 [GB] | A3 c3 | %4
w: By~Robert~Lowry * * * * *||||
 [CF][CF][CF] [CF][CG][FA] | [Ac]2 [Ac] AGF | [EG]2 [Ec] [D=B][Ec][Fd] | [Ec]6 | %8
w: ||||
 [GB][FA][EG] [EG]2 [GB] | [FA]2 [GB] [FA]3 | [EG][FA][GB] [GB]2 [EG] | [FA]2 [Fc] [Fc]3 | %12
w: ||||
 [Fd][Fd][Fd] [Fc]2 [FA] | [EG]2 [EG] [FA]3 | F2 F [EG]2 [EG] | A2 c d3 | [Fc]2 [FA] GF[CG] | %17
w: |||||
 [CF]6- | [CF]3 z3 |] %19
w: ||
V:2
 x6 | z3 .F3 | x6 | F6 | x6 | z3 .F3 | x6 | x6 | x6 | x6 | x6 | x6 | x6 | x6 | x6 | F6 | z3 .C3 | %17
 x6 | x6 |] %19
V:3
 A,A,A, A,B,C | A,2 A, CB,A, | C2 C C2 C | C3[K:bass] A,3 | A,A,A, A,B,[K:treble]C | %5
 C2 C CB,[K:bass]A, | C2 G, G,2 G, | G,6 | CCC C2 C | C2 C C3 | CCC C2 C | C2[K:bass] A, A,3 | %12
 B,B,B, A,2[K:treble] C | C2 C C3 | C2 C C2 C | C2[K:bass] A, B,3 | A,2 C B,A,B, | A,6- | A,3 z3 |] %19
V:4
 F,F,F, F,F,F, | F,2 F, F,2 F, | C,2 C, C,2 C, | F,6 | F,F,F, F,F,F, | F,2 F, F,2 F, | C,2 C, z3 | %7
 C,6 | C,C,C, C,2 C, | F,2 F, F,3 | C,C,C, C,2 C, | F,2 F, F,3 | B,,B,,B,, F,2 F, | C,2 C, F,3 | %14
 A,,2 A,, C,2 C, | F,2 F, B,,3 | C,2 C, C,2 C, | F,6- | F,3 z3 |] %19

